chains/nesa/logo.svg

<svg xmlns="http://www.w3.org/2000/svg" width="1024" height="1024" fill="none" viewBox="0 0 1024 1024"><path fill="#fff" d="M0 0h1024v1024H0z"/><path fill="#000" d="M385.276 780.084a7.92 7.92 0 0 1-7.92 7.916H274.92a7.92 7.92 0 0 1-7.92-7.916V614.746a7.92 7.92 0 0 1 7.92-7.916h102.436a7.92 7.92 0 0 1 7.92 7.916zM274.92 568.747a7.92 7.92 0 0 1-7.92-7.916V376.832q0-76.829 51.535-128.33T446.949 197h130.103q76.88 0 128.413 51.502Q757 300.003 757 376.832v403.252a7.92 7.92 0 0 1-7.92 7.916H646.644a7.92 7.92 0 0 1-7.92-7.916V376.832q0-33.77-14.361-47.279-13.518-14.353-47.312-14.353H446.948q-33.793 0-48.156 14.353-13.516 13.51-13.516 47.279v183.999c0 4.372-3.547 7.916-7.921 7.916z"/></svg>

<svg width="1024" height="1024" viewBox="0 0 1024 1024" fill="none" xmlns="http://www.w3.org/2000/svg">
<rect width="1024" height="1024" fill="white"/>
<path d="M385.276 780.084C385.276 784.456 381.73 788 377.356 788H274.92C270.546 788 267 784.456 267 780.084V614.746C267 610.375 270.546 606.83 274.92 606.83H377.356C381.73 606.83 385.276 610.375 385.276 614.746V780.084ZM274.92 568.747C270.546 568.747 267 565.203 267 560.831V376.832C267 325.613 284.178 282.836 318.535 248.502C352.891 214.168 395.696 197 446.949 197H577.052C628.305 197 671.11 214.167 705.465 248.502C739.822 282.836 757 325.613 757 376.832V780.084C757 784.456 753.454 788 749.08 788H646.644C642.27 788 638.724 784.456 638.724 780.084V376.832C638.724 354.319 633.937 338.558 624.363 329.553C615.351 319.985 599.58 315.2 577.051 315.2H446.948C424.418 315.2 408.368 319.985 398.792 329.553C389.781 338.559 385.276 354.32 385.276 376.832V560.831C385.276 565.203 381.729 568.747 377.355 568.747H274.92Z" fill="black"/>
</svg>
